icons/fill-new-food-fruit-watermelon.svg

<svg xmlns="http://www.w3.org/2000/svg" width="32px" height="32px" viewBox="0 0 32 32" version="1.1">
    <title>fill-new-food-fruit-watermelon</title>
    <g id="fill-new-food-fruit-watermelon" stroke-width="1" fill-rule="evenodd">
        <path d="M18.5962475,12.4894634 L12.9392864,18.1464245 C12.5487621,18.5369488 12.5487621,19.1701137 12.9392864,19.560638 C13.3298107,19.9511623 13.9629757,19.9511623 14.3535,19.560638 L20.0104611,13.9036769 L20.8823237,14.7755396 L19.0402117,22.1465295 C18.9158307,22.6440534 19.1878319,23.1477333 19.6563112,23.324396 L19.7678186,23.3592077 C20.3036135,23.4931564 20.846548,23.1673957 20.9804967,22.6316008 L22.5320039,16.4252197 L28.4956356,22.3890652 C28.8582653,22.7516949 28.8841674,23.3235403 28.5733419,23.7160579 L28.4956356,23.8032787 C23.0282955,29.2706188 14.1639858,29.2706188 8.69664571,23.8032787 C3.22930563,18.3359386 3.22930563,9.47162894 8.69664571,4.00428885 L8.78386652,3.92658249 C9.17638418,3.61575703 9.74822957,3.64165915 10.1108593,4.00428885 L16.0739976,9.96721348 L9.86832365,11.5194277 C9.3707998,11.6438087 9.05437689,12.1208355 9.11895885,12.617335 L9.14071677,12.7321059 C9.2746655,13.2679008 9.81759999,13.5936615 10.3533949,13.4597127 L17.7236777,11.6168936 L18.5962475,12.4894634 Z" id="&#36335;&#24452;" />
    </g>
</svg>

<svg xmlns="http://www.w3.org/2000/svg" viewBox="0 0 32 32"><path fill="currentColor" d="m18.596 12.49-5.657 5.656a1 1 0 1 0 1.415 1.415l5.656-5.657.872.872-1.842 7.37a1 1 0 0 0 .616 1.178l.112.035a1 1 0 0 0 1.212-.727l1.552-6.207 5.964 5.964a1 1 0 0 1 .077 1.327l-.077.087c-5.468 5.468-14.332 5.468-19.8 0-5.467-5.467-5.467-14.331 0-19.799l.088-.077a1 1 0 0 1 1.327.077l5.963 5.963-6.206 1.552a1 1 0 0 0-.749 1.098l.022.115a1 1 0 0 0 1.212.728l7.37-1.843z"/></svg>
